images/icon-5.svg

<?xml version="1.0" encoding="utf-8"?>
<svg width="60px" height="60px" viewBox="0 0 60 60" version="1.1" xmlns:xlink="http://www.w3.org/1999/xlink" xmlns="http://www.w3.org/2000/svg">
  <g id="world-grid-hand-drawn-symbol">
    <path d="M43.7238 4.27503C37.7455 0.969623 30.7362 0.390577 24.038 0.0119231C21.9035 -0.108661 19.3585 0.710749 17.3227 1.32467C14.8254 2.07701 12.4672 3.26207 10.4007 4.84871C5.56406 8.56161 2.791 14.18 1.33527 19.9648C0.0782451 24.9642 -0.37179 30.5937 0.333751 36.0045C0.309738 36.2641 0.334425 36.527 0.434118 36.7749C1.27564 42.3205 3.36987 47.591 7.13163 51.6531C19.2059 64.6925 43.6086 61.509 54.4909 48.6427C61.3529 40.5305 61.2351 29.7472 57.2549 20.3535C54.4492 13.7296 50.1226 7.81302 43.7238 4.27503ZM8.38811 12.117C11.901 6.59658 17.5662 4.2093 23.6325 3.80329C19.7528 6.56586 16.8192 10.2283 14.7778 14.379C11.8164 14.9893 8.89615 15.7745 6.04809 16.7316C6.68402 15.1323 7.45364 13.5838 8.38811 12.117ZM3.85322 34.5326C3.43637 30.0181 3.63495 25.3341 4.72078 20.8969C7.45647 19.8794 10.2758 19.0142 13.1484 18.3216C11.008 24.6553 10.7014 31.7467 12.1137 38.4129C9.25513 37.6711 6.4992 36.6154 3.92958 35.1659C3.90624 34.955 3.87265 34.7472 3.85322 34.5326ZM20.3807 55.3694C11.9143 53.1782 6.7717 47.2198 4.72995 39.4938C7.40804 40.7185 10.2272 41.5917 13.1182 42.1971C14.7266 47.2155 17.3579 51.839 20.9717 55.5096C20.7755 55.4626 20.5768 55.4205 20.3807 55.3694ZM16.9531 42.8503C19.6038 43.2011 22.285 43.368 24.945 43.411C24.9892 47.2682 25.156 51.1233 25.5165 54.9777C21.6212 51.8806 18.7523 47.6202 16.9531 42.8503ZM24.937 39.9652C21.8933 39.9339 18.8197 39.7125 15.811 39.2036C13.992 32.0259 14.4187 24.1274 17.2369 17.4596C20.0746 16.9451 22.9483 16.5997 25.8293 16.4373C25.4676 24.2817 24.9864 32.1256 24.937 39.9652ZM25.9783 12.9515C23.7174 13.0615 21.4608 13.2785 19.2188 13.5999C20.9999 10.7333 23.3139 8.22453 26.1824 6.28097C26.1403 8.50366 26.0667 10.7278 25.9783 12.9515ZM44.0218 8.52378C47.1626 10.5497 49.6856 13.4947 51.6489 16.8014C47.7504 15.3261 43.7067 14.2857 39.5924 13.6468C37.6277 10.2766 35.2183 7.15202 32.5653 4.37885C36.596 5.06091 40.4959 6.24918 44.0218 8.52378ZM29.6861 6.43482C31.6994 8.49789 33.5292 10.732 35.1122 13.1111C33.244 12.9527 31.3678 12.8723 29.4885 12.8696C29.5733 10.7241 29.6432 8.57958 29.6861 6.43482ZM29.3398 16.3325C32.0021 16.3223 34.6596 16.4735 37.2907 16.7984C39.4471 20.9331 40.8488 25.4295 41.1741 30.202C41.3824 33.2385 41.0206 36.1114 40.2165 38.8127C36.8002 39.3372 33.3559 39.6886 29.9016 39.8623C29.4175 39.8868 28.9301 39.9051 28.4418 39.9221C28.4937 32.0615 28.9791 24.1967 29.3398 16.3325ZM28.9719 54.4179C28.6459 50.7445 28.4944 47.07 28.4523 43.3938C31.8788 43.321 35.3218 43.0546 38.747 42.5963C36.5597 47.1557 33.09 51.1273 28.9719 54.4179ZM46.5248 51.0919C42.3317 53.9145 37.3672 55.6009 32.2837 56.1614C36.9692 52.1435 40.6459 47.4493 42.7504 41.9798C47.1586 41.202 51.5063 40.1082 55.733 38.7588C54.3157 43.6541 51.1509 47.9765 46.5248 51.0919ZM56.4591 34.8875C56.3997 34.9012 56.342 34.9072 56.2804 34.9284C52.2374 36.2893 48.104 37.3599 43.917 38.1658C44.4349 35.9616 44.7179 33.6472 44.7172 31.2096C44.7157 26.4431 43.5328 21.8091 41.5736 17.4851C45.5802 18.2831 49.4945 19.5055 53.2313 21.2027C53.4725 21.3119 53.7096 21.363 53.9384 21.3727C54.6761 23.1374 55.2817 24.9312 55.7551 26.6867C56.5058 29.4723 56.7174 32.2332 56.4591 34.8875Z" id="Shape" fill="#000000" stroke="none" />
  </g>
</svg>

<?xml version="1.0" encoding="utf-8"?>
<!-- Generator: Adobe Illustrator 25.3.0, SVG Export Plug-In . SVG Version: 6.00 Build 0)  -->
<svg version="1.1" id="Calque_1" xmlns="http://www.w3.org/2000/svg" xmlns:xlink="http://www.w3.org/1999/xlink" x="0px" y="0px"
	 viewBox="0 0 60 60" style="enable-background:new 0 0 60 60;" xml:space="preserve">
<style type="text/css">
	.st0{fill:#64A9A5;}
</style>
<g id="world-grid-hand-drawn-symbol">
	<path id="Shape" class="st0" d="M43.7,4.3C37.7,1,30.7,0.4,24,0c-2.1-0.1-4.7,0.7-6.7,1.3c-2.5,0.8-4.9,1.9-6.9,3.5
		C5.6,8.6,2.8,14.2,1.3,20c-1.3,5-1.7,10.6-1,16c0,0.3,0,0.5,0.1,0.8c0.8,5.5,2.9,10.8,6.7,14.9c12.1,13,36.5,9.9,47.4-3
		c6.9-8.1,6.7-18.9,2.8-28.3C54.4,13.7,50.1,7.8,43.7,4.3z M8.4,12.1c3.5-5.5,9.2-7.9,15.2-8.3c-3.9,2.8-6.8,6.4-8.9,10.6
		c-3,0.6-5.9,1.4-8.7,2.4C6.7,15.1,7.5,13.6,8.4,12.1z M3.9,34.5C3.4,30,3.6,25.3,4.7,20.9c2.7-1,5.6-1.9,8.4-2.6
		c-2.1,6.3-2.4,13.4-1,20.1c-2.9-0.7-5.6-1.8-8.2-3.2C3.9,35,3.9,34.7,3.9,34.5z M20.4,55.4c-8.5-2.2-13.6-8.1-15.7-15.9
		c2.7,1.2,5.5,2.1,8.4,2.7c1.6,5,4.2,9.6,7.9,13.3C20.8,55.5,20.6,55.4,20.4,55.4z M17,42.9c2.7,0.4,5.3,0.5,8,0.6
		c0,3.9,0.2,7.7,0.6,11.6C21.6,51.9,18.8,47.6,17,42.9z M24.9,40c-3,0-6.1-0.3-9.1-0.8C14,32,14.4,24.1,17.2,17.5
		c2.8-0.5,5.7-0.9,8.6-1C25.5,24.3,25,32.1,24.9,40z M26,13c-2.3,0.1-4.5,0.3-6.8,0.6c1.8-2.9,4.1-5.4,7-7.3
		C26.1,8.5,26.1,10.7,26,13z M44,8.5c3.1,2,5.7,5,7.6,8.3c-3.9-1.5-7.9-2.5-12.1-3.2c-2-3.4-4.4-6.5-7-9.3C36.6,5.1,40.5,6.2,44,8.5
		z M29.7,6.4c2,2.1,3.8,4.3,5.4,6.7c-1.9-0.2-3.7-0.2-5.6-0.2C29.6,10.7,29.6,8.6,29.7,6.4z M29.3,16.3c2.7,0,5.3,0.1,8,0.5
		c2.2,4.1,3.6,8.6,3.9,13.4c0.2,3-0.2,5.9-1,8.6c-3.4,0.5-6.9,0.9-10.3,1c-0.5,0-1,0-1.5,0.1C28.5,32.1,29,24.2,29.3,16.3z M29,54.4
		c-0.3-3.7-0.5-7.3-0.5-11c3.4-0.1,6.9-0.3,10.3-0.8C36.6,47.2,33.1,51.1,29,54.4z M46.5,51.1c-4.2,2.8-9.2,4.5-14.2,5.1
		c4.7-4,8.4-8.7,10.5-14.2c4.4-0.8,8.8-1.9,13-3.2C54.3,43.7,51.2,48,46.5,51.1z M56.5,34.9c-0.1,0-0.1,0-0.2,0
		c-4,1.4-8.2,2.4-12.4,3.2c0.5-2.2,0.8-4.5,0.8-7c0-4.8-1.2-9.4-3.1-13.7c4,0.8,7.9,2,11.7,3.7c0.2,0.1,0.5,0.2,0.7,0.2
		c0.7,1.8,1.3,3.6,1.8,5.3C56.5,29.5,56.7,32.2,56.5,34.9z"/>
</g>
</svg>
